X:481
T:Das Kinget is Heulich. RH.481
R:air
S:Rev.R.Harrison’s MS,c1815,Cumbria
N:48 bars, well two 2 24-bar sections separated by a
N:one-bar rest. The two halves are not harmonies.
N:Yet another tune that sounds just like a polka. PJH.
O:England
A:Temple Sowerby,Cumbria
Z:vmp.Simon Wilson. Review PJH, 2008.
M:C
L:1/8
Q:2/4=110
K:G
dc|.B2.g2.b2(B2|c2).a2.c’2(cB)|\
.A2.f2.a2.f2|.g.b.g.b(g2dc)|\
.B2.d.fb2(B2|c2).e.a.c’2.c2|\
.B.d.g2.A.c.f2|g2.b2.g2.c.B|\
.A2.f2.a2(.A2|B2)g2b2B2|\
c2a2c’2(f2|g).b.g.bg2Bc|\
d2g2b2(d2|c2).a2.c’2c2|\
.B.d.g2.A.d.f2|.g2.b2.g2(cB)|\
.A.d.f.da2(Ac)|.B.d.g.d.b2(Bd)|\
.c.f.a.f.a2(fa)|.g.b.g.bd’2B>c|\
.d2.g.d.b2.d.B|.e2.g.ec’2.e.c|\
.B.d.g.b .A.d.f.a|.g.d.g.bg2z2|\
z8|.b2.b2.b2.b2|(d’c’)(c’b)a4|\
.g2.g2.a2.a2|a2c’ba4|\
g2g2^g2g2|(abc’d’) e’4|\
.d2(d2e2f2)|a4g2z2|\
c’2(c’2b2d’2)|(d2f2a4)|\
c’2(c’2b2d’2)|(d2f2g4)|\
d’6b2|b6e’2|\
d’c’ba ^gabc’|d’8|\
.b2.b2.b2.b2|d’c’c’ba4|\
g2g2a2a2|a2c’ba4|\
.g2.g2.^g2.g2|abc’d’e’4|\
.d2(d2e2f2)|(a4g2)|]

